X:1017
T:Archie's Fancy
R:Waltz
C:Billy Pigg 1902-1968
O:England, Borders
Z:Paul Hardy's Session Tunebook 2015 (see www.paulhardy.net). Creative Commons cc by-nc-sa licenced.
M:3/4
L:1/4
Q:1/4=120
K:G
(3B/=c/^c/|"G"d g>d|Bg>d|"C"fec|E2 A/B/|"D7"cAF|DFA|"C"ed>c|"G"B2 (3B/=c/^c/|
"G"d g>d|Bgd|"C"fec|E2 A/B/|"Am"ca>g|"D"fef|"G"g d/g/ B/g/|G2:|
|:(3B/=c/^c/|"G"db>a|g3/ d/B/d/|"Am"ca>g|"D"f2 A/B/|"Am"ca>g|"D"fef|"G"g.b/zg/|d2 (3B/=c/^c/|
"G"db>a|"Em"g3/ d/B/d/|"Am"ca>g|"D"f2 A/B/|"Am"ca>g|"D"fef|"G"g d/g/ B/g/|G2:|

